src/icons/nav-pipelines-hover.svg

<svg viewBox="0 0 16 16" xmlns="http://www.w3.org/2000/svg" xmlns:xlink="http://www.w3.org/1999/xlink"><filter id="a"><feColorMatrix in="SourceGraphic" type="matrix" values="0 0 0 0 1.000000 0 0 0 0 1.000000 0 0 0 0 1.000000 0 0 0 1.000000 0"/></filter><filter id="b"><feColorMatrix in="SourceGraphic" type="matrix" values="0 0 0 0 0.453512 0 0 0 0 0.490089 0 0 0 0 0.533316 0 0 0 1.000000 0"/></filter><g fill="none" fill-rule="evenodd" filter="url(#a)" opacity=".75" transform="translate(-755 -442)"><g filter="url(#b)" opacity=".900972" transform="translate(755 442)"><g fill="#fff" fill-rule="nonzero"><path d="m0 0h16v16h-16z" opacity="0"/><path d="m13.5 2.5h-2.5705c-.2259443-.88144073-1.01956262-1.49840236-1.9295-1.5-1.1045695 0-2 .8954305-2 2s.8954305 2 2 2c.90993738-.00159764 1.7035557-.61855927 1.9295-1.5h2.5705c.2761424 0 .5.22385763.5.5v4.5c0 .27614237-.2238576.5-.5.5h-4.75c-.27614237 0-.5.22385763-.5.5s.22385763.5.5.5h4.75c.8284271 0 1.5-.67157288 1.5-1.5v-4.5c0-.82842712-.6715729-1.5-1.5-1.5zm-4.50000005 1.50000003c-.35735486-.00008934-.68751677-.19081844-.86611687-.50034153-.17860011-.30952309-.17850481-.69081624.00025-1.00025001.1787548-.30943377.50901201-.49999781.86636692-.49990852.55242282.00013811 1.0001381.44807721 1 1.00050003s-.44807718 1.00013806-1.00050005 1.00000003z"/><path d="m13 11c-.8965 0-1.6465.594-1.9005 1.407h-5.0995c-.26701032-.000878-.48581425-.2121826-.496-.479.97639199-.2492127 1.61364034-1.1874238 1.48539485-2.18692439-.12824549-.99950057-.98171457-1.74643837-1.98939485-1.74107561-.7385 0-1.376.4045-1.7225 1h-.7775c-.27614237 0-.5-.22385763-.5-.5v-4.5c0-.27614237.22385763-.5.5-.5h3.25c.27614237 0 .5-.22385763.5-.5s-.22385763-.5-.5-.5h-3.25c-.82842712 0-1.5.67157288-1.5 1.5v4.5c0 .82842712.67157288 1.5 1.5 1.5h.5c.0014858.9109073.6197844 1.7051278 1.5025 1.93.01174603.8188827.67853337 1.4767647 1.4975 1.4775h5.042c.2142484 1.0294678 1.1890891 1.7172145 2.230791 1.5738152 1.0417019-.1433992 1.7944564-1.0689642 1.7225767-2.1180303-.0718797-1.049066-.943842-1.863309-1.9953677-1.8632849zm-9.00000003-1.00000006c.00008934-.35735485.19081844-.68751676.50034153-.86611687s.69081624-.17850481 1.00025001.00025c.30943378.17875481.49999782.50901202.49990852.86636693-.00013812.5524228-.44807722 1.000138-1.00050006 1-.55242278-.0001381-1.00013803-.4480772-1-1.00050006zm9.00000003 4.00000006c-.3573549-.0000893-.6875168-.1908184-.8661169-.5003415s-.1785048-.6908162.00025-1.00025.509012-.4999978.8663669-.4999085c.5524228.0001381 1.0001381.4480772 1 1.0005s-.4480772 1.0001381-1.0005 1z"/></g></g></g></svg>

<svg viewBox="0 0 16 16" xmlns="http://www.w3.org/2000/svg"><filter id="a"><feColorMatrix in="SourceGraphic" values="0 0 0 0 1.000000 0 0 0 0 1.000000 0 0 0 0 1.000000 0 0 0 1.000000 0"/></filter><filter id="b"><feColorMatrix in="SourceGraphic" values="0 0 0 0 0.453512 0 0 0 0 0.490089 0 0 0 0 0.533316 0 0 0 1.000000 0"/></filter><g fill="none" fill-rule="evenodd" filter="url(#a)" opacity=".75" transform="translate(-755 -442)"><g filter="url(#b)" opacity=".901" transform="translate(755 442)"><g fill="#fff" fill-rule="nonzero"><path d="M13.5 2.5h-2.57A1.995 1.995 0 007 3a1.995 1.995 0 003.93.5h2.57a.5.5 0 01.5.5v4.5a.5.5 0 01-.5.5H8.75a.5.5 0 000 1h4.75A1.5 1.5 0 0015 8.5V4a1.5 1.5 0 00-1.5-1.5zM9 4a1 1 0 110-2 1 1 0 010 2z"/><path d="M13 11c-.896 0-1.647.594-1.9 1.407H6a.498.498 0 01-.496-.479A1.995 1.995 0 005 8a1.99 1.99 0 00-1.722 1H2.5a.5.5 0 01-.5-.5V4a.5.5 0 01.5-.5h3.25a.5.5 0 000-1H2.5A1.5 1.5 0 001 4v4.5A1.5 1.5 0 002.5 10H3c.001.91.62 1.705 1.502 1.93A1.499 1.499 0 006 13.408h5.042A2 2 0 1013 11zm-9-1a1 1 0 112 0 1 1 0 01-2 0zm9 4a1 1 0 110-2 1 1 0 010 2z"/></g></g></g></svg>
